X: 1
T: the Campbells are Coming
R: jig, march
M: 6/8
L: 1/8
K: D
"A7"E \
| "D"FAB "(A)"AFD | "D"F>GF "A7"F2E | "D"FAB "Bm"AFD | "Em"E>FE "A7"E2E \
| "D"FAB "(A)"AFD | "D"F>GF "D"d2e | "D"fed "G"BdB | "D"AFF "(A)"F2 :|
|: "A7"A \
| "D"d2d "(A)"def | "D"A>BA "A7"AFA | "D" d2d "Bm"def | "G"B>cB "A7"B2A \
| "D"ABc "G"dcB | "A7"ABc "Bm"d2e | "(D)"fed "G"BdB | "D"AFF "(A)"F2 :|
